img/icons/sync-icon.svg

<svg xmlns="http://www.w3.org/2000/svg" width="60" height="61" viewBox="0 0 60 61" xmlns:xlink="http://www.w3.org/1999/xlink">
  <defs>
    <path id="b" d="M28.9999983,14.4999991 L28.9999983,21.7499987 L38.6666643,12.0833326 L28.9999983,2.41666652 L28.9999983,9.66666609 C18.318332,9.66666609 9.66666609,18.318332 9.66666609,28.9999983 C9.66666609,32.7941637 10.7783328,36.3224971 12.663332,39.2949981 L16.1916652,35.7666648 C15.1041658,33.7608318 14.4999991,31.4408319 14.4999991,28.9999983 C14.4999991,21.0008334 21.0008334,14.4999991 28.9999983,14.4999991 L28.9999983,14.4999991 Z M45.3366644,18.7049983 L41.8083289,22.2333315 C42.8716634,24.2633316 43.4999974,26.5591643 43.4999974,28.9999983 C43.4999974,36.999163 36.999163,43.4999974 28.9999983,43.4999974 L28.9999983,36.2499978 L19.3333322,45.9166639 L28.9999983,55.58333 L28.9999983,48.3333304 C39.6816643,48.3333304 48.3333304,39.6816643 48.3333304,28.9999983 C48.3333304,25.2058325 47.221666,21.6774993 45.3366644,18.7049983 L45.3366644,18.7049983 Z"/>
    <filter id="a" width="200%" height="200%" x="-50%" y="-50%" filterUnits="objectBoundingBox">
      <feOffset dy="2" in="SourceAlpha" result="shadowOffsetOuter1"/>
      <feGaussianBlur stdDeviation="1" in="shadowOffsetOuter1" result="shadowBlurOuter1"/>
      <feColorMatrix values="0 0 0 0 0 0 0 0 0 0 0 0 0 0 0 0 0 0 0.1 0" in="shadowBlurOuter1"/>
    </filter>
  </defs>
  <g fill="none" fill-rule="evenodd" transform="translate(1 1)">
    <polygon stroke="#000000" stroke-opacity=".008" stroke-width=".5" points="0 0 58 0 58 58 0 58"/>
    <use fill="black" filter="url(#a)" xlink:href="#b"/>
    <use fill="#FFFFFF" xlink:href="#b"/>
  </g>
</svg>

<svg xmlns="http://www.w3.org/2000/svg" width="60" height="61" viewBox="0 0 60 61" xmlns:xlink="http://www.w3.org/1999/xlink"><defs><path id="b" d="M29 14.5v7.25l9.667-9.667L29 2.417v7.25C18.318 9.667 9.667 18.318 9.667 29c0 3.794 1.111 7.322 2.996 10.295l3.529-3.528A14.187 14.187 0 0 1 14.5 29c0-8 6.5-14.5 14.5-14.5zm16.337 4.205l-3.529 3.528C42.872 24.263 43.5 26.56 43.5 29c0 8-6.5 14.5-14.5 14.5v-7.25l-9.667 9.667L29 55.583v-7.25c10.682 0 19.333-8.651 19.333-19.333 0-3.794-1.111-7.323-2.996-10.295z"/><filter id="a" width="200%" height="200%" x="-50%" y="-50%" filterUnits="objectBoundingBox"><feOffset dy="2" in="SourceAlpha" result="shadowOffsetOuter1"/><feGaussianBlur stdDeviation="1" in="shadowOffsetOuter1" result="shadowBlurOuter1"/><feColorMatrix values="0 0 0 0 0 0 0 0 0 0 0 0 0 0 0 0 0 0 0.1 0" in="shadowBlurOuter1"/></filter></defs><g fill="none" fill-rule="evenodd" transform="translate(1 1)"><path stroke="#000" stroke-opacity=".008" stroke-width=".5" d="M0 0h58v58H0z"/><use fill="#000" filter="url(#a)" xlink:href="#b"/><use fill="#FFF" xlink:href="#b"/></g></svg>
